!!!!SEGMENT: 028_1-12-1a-C-011.krn
!!!COM: Chopin, Fryderyk
!!!OTL: Prelude XI
!!!OPS: Op. 28
!!!PTL: 24 Preludes pour le Piano
!!!PPR: Catelin
!!!PPP: Paris
!!!NIFC-rismID:  1001065076
!!!NIFC-shelfmark: PL-Wbfc 6583/n
!!!OMD: Vivace.
**kern	**kern	**dynam
*part1	*part1	*part1
*staff2	*staff1	*S
*I"XI.	*	*
*clefF4	*clefG2	*
*k[f#c#g#d#a#]	*k[f#c#g#d#a#]	*
*B:	*B:	*
*M6/8	*M6/8	*
*MM150	*MM150	*
=1	=1	=1
!	!LO:TX:b:Bi:t=Legato.	!
2.rF	(>2.ff#	.
=2	=2	=2
2.rF	8ee#XL	>
.	8ff#	.
.	8gg#J	.
.	8ff#L	.
.	8een	.
.	8dd#J	]
=3	=3	=3
*ped	*	*
8A#L	8cc#L 8e	.
8F#	8f#	.
.	8qa#/	.
8C#J	8g#J	.
8FF#L	8f#L	.
8C#	8f#	.
*Xped	*	*
8F#J	8dd#J	.
=4	=4	=4
*ped	*	*
8A#L	8cc#L 8e	.
8F#	8f#	.
.	8qa#/	.
8C#J	8g#J	.
8FF#L	8f#L	.
8C#	8f#	.
*Xped	*	*
8F#J	8dd#J	.
=5	=5	=5
*ped	*	*
8BBL\	8cc#L 8e	<
8F#	8f#	.
8BBJ	8bJ 8d#	.
8F#L	8f#L	.
8D#	8dd# 8b	.
8BJ	8f#J	[[
!!LO:LB:g=original
=6	=6	=6
8d#L	8ee#XL 8b	.
8F#	8ff# 8f#	.
8BJ	8gg#J 8b	.
8D#L	8ff#L 8f#	>
8F#	8eeni 8b	.
*Xped	*	*
8BBJ	8dd#J 8f#	.
=7	=7	=7
*ped	*	*
8A#L	8cc#L 8e	.
8F#	8f#	.
.	8qa#/	.
8C#J	8g#J	]
8FF#L	8f#L	.
8C#	8f#	.
*Xped	*	*
8F#J	8dd#J	.
=8	=8	=8
*ped	*	*
8A#L	8cc#L 8e	.
8F#	8f#	.
.	8qa#/	.
8C#J	8g#J	.
8FF#L	8f#L	.
8C#	8f#	.
*Xped	*	*
8F#J	8dd#J	.
=9	=9	=9
*ped	*	*
8BBL\	8cc#L 8e	<
8F#	8f#	.
8BBJ	8bJ 8d#	.
8F#L	8f#L	.
8D#	8dd# 8b	.
*Xped	*	*
8BJ	8f#J	.
=10	=10	=10
8d#L	8ff#L 8b	.
8F#	8f#	.
8c#J	8ff##XJ 8a#	.
8EL	8f##XL\	.
8B	8gg# 8b	.
!	!LO:TX:a:t=P:problem:łuk kończy się na kresce taktowej	!
8D#J	8g#J)	[[
!!LO:LB:g=original
=11	=11	=11
*ped	*	*
8GG#L	(>8bbL 8dd#	.
8D#	8b	.
.	8qff#/	.
8BJ	8eeJ	.
8G#L	8dd#L	.
8d#	8b	.
*Xped	*	*
8BJ	8bbJ 8gg#	.
=12	=12	=12
*ped	*	*
8D#L	8aa#L 8ff#	.
8f#	8dd#	.
8A#J	8a#J	.
.	8qcc#/	.
8F#L	8bL	.
8d#	8a#	.
*Xped	*	*
8A#J	8ff#J 8dd#)	.
=13	=13	=13
*	*^	*
*ped	*	*	*
!LO:TX:t=P:mixed beam:problem	!	!	!
8EEL/	(>[>2b	8g#L	>
8B\	.	8e	.
.	.	8qg#/	.
8BBJ\	.	8f#J	.
8G#L	.	8e	.
8B	8bL]	4g#	]<
*Xped	*	*	*
8EJ	8cc#J	.	.
=14	=14	=14	=14
*ped	*	*	*
8BBL	2.dd#	8bL	.
!	!	!	!LO:HP:b=2
8E#X	.	8d#	[<
8F#J	.	8f#J	.
8c#L	.	8d#L	[
!	!	!	!LO:HP:b=2
.	.	.	>
8B	.	8f#	.
*Xped	*	*	*
8G#J	.	8g#J)	]
*	*v	*v	*
=15	=15	=15
*ped	*	*
8A#L	(>8cc#L 8e	.
8F#	8f#	.
.	16qqg#/LL	.
.	16qqa#/JJ	.
8C#J	8g#J	.
8FF#L	8f#L	.
8C#	8f#	.
*Xped	*	*
8F#J	8dd#J	.
!!LO:LB:g=original
=16	=16	=16
*ped	*	*
8A#L	8cc#L 8e	.
8F#	8f#	.
.	16qqg#/LL	.
.	16qqa#/JJ	.
8C#J	8g#J	.
8FF#L	8f#L	.
8C#	8f#	.
*Xped	*	*
8F#J	8dd#J	.
=17	=17	=17
*ped	*	*
8BBBL	8cc#L 8e	.
8FF#	8f#	.
8BBJ	8bJ 8d#	.
8F#L	8f#L	.
8D#	8dd# 8b	.
*Xped	*	*
8BJ	8f#J	.
=18	=18	=18
8c##XL	8ee#XL 8b	.
8d#	8ff# 8f#	.
8eJ	8gg#J 8b	.
8d#L	8ff#L 8f#	.
8c#X	8een 8b	.
8BJ	8dd#J 8f#	.
=19	=19	=19
*ped	*	*
8A#L	8cc#L 8e	.
8r	8f#	.
.	16qqg#/LL	.
.	16qqa#/JJ	.
8C#J	8g#J	.
8FF#L	8f#L	.
8C#	8f#	.
8F#J	8dd#J	.
=20	=20	=20
8A#L	8cc#L 8e	.
8F#	8f#	.
.	16qqg#/LL	.
.	16qqa#/JJ	.
8C#J	8g#J	.
8FF#L	8f#L	.
8C#	8f#	.
*Xped	*	*
!	!LO:TX:a:t=P:problem:łuk kończy się na kresce taktowej	!
8A#J	8ff#J)	.
!!LO:LB:g=original
=21	=21	=21
*ped	*	*
2.d# 2.F# 2.BB	(>2.ff#	f>
=22	=22	=22
2.rF	8ee#XL	.
.	8ff#	.
.	8gg#J	.
.	8ff#L	.
.	8een	.
*Xped	*	*
.	8dd#J	]
=23	=23	=23
*	*^	*
4r	4.dd#	4.ryy	.
8r	.	.	.
(<4.A# 4.D#	8cc##XL	4.f##X	.
.	8dd#	.	.
.	8eeJ	.	.
=24	=24	=24	=24
*ped	*	*	*
4.B 4.G#	8dd#L	4.g#	.
.	8cc#X	.	.
*Xped	*	*	*
.	8bJ	.	>
*ped	*	*	*
4.A# 4.F#	8dd#L	4.e	.
.	8cc#	.	.
*Xped	*	*	*
.	8bJ	.	]
*	*v	*v	*
=25	=25	=25
*ped	*	*
2.F# 2.BB	2.b 2.d#	.
=26	=26	=26
4.BB 4.BBB	2.f# 2.d# 2.F#<	.
4.FF# 4.FFF#	.	.
=27	=27	=27
2.BB 2.BBB)	2.d# 2.B< 2.F#<)	.
*Xped	*	*
.	.	.
==	==	==
*-	*-	*-
!!title: @{OTL}; @{OPS} @{ONM} publisher: @{PPR}
!!!RDF**kern: > = above
!!!RDF**kern: < = below
!!!RDF**kern: N = linked
!!!RDF**kern: i = editorial accidental
!!!ENC: Wojciech Jakubiak-Danek
!!!END: 2019-05-11
!!!EED: Leszek Kubiak
!!!EST: 2019-05-16
!!!EED2: Emilia Ziętek
!!!EST2: 2020-05-03
!!!rism-genre: Prelude
!!!rism-key: B major
!!!rism-opus: op. 28, no. 11
!!!rism-title: Prelude in B major op. 28, no. 11
!!!rism-permalink: https://opac.rism.info/search?id=1001065076&View=rism
!!!rism-773a-OPR: 1001065063
!!!rism-parent-permalink: https://opac.rism.info/search?id=1001065063&View=rism
